X: 1
T: String Quartet in D Major opus 17 no 6 mvt 4
C: Franz Joseph Haydn
%%abc-version 2.0
%%abcx-abcm2ps-target-version 5.9.1 (29 Sep 2008)
%%abc-creator hum2abc beta
%%abcx-conversion-date 2021/02/14 14:38:16
%%abc-copyright Copyright (c) 1994, 2000 Center for Computer Assisted Research in the Humanities
%%abc-edited-by Frances Bennion
%%abcx-initial-encoding-date 1997/04/15
%%gracespace 0 6 6
%%humdrum-veritas 4182432914
%%humdrum-veritas-data 423761930
%%linebreak <none>
%%barnumbers 0
L: 1/8
M: 2/4
N: Derived from op17n6-04.krn
Q: "Finale: Allegro"
%%staves [1 2 3 4]
V: 1
V: 2
V: 3 clef=alto
V: 4 clef=bass
K: D
[V:1]z3 f [I:setbarnb1]|
[V:2]z3 d |
[V:3]z3 z |
[V:4]z3 z |
[V:1]gb e/f/g/e/ |
[V:2]eg c/d/e/c/ |
[V:3]z4 |
[V:4]z4 |
[V:1]fa zd |
[V:2]df zF |
[V:3]z4 |
[V:4]z4 |
[V:1]eg c/d/e/c/ |
[V:2]GB E/F/G/E/ |
[V:3]z4 |
[V:4]z4 |
[V:1]df z2 |
[V:2]FA zF |
[V:3]z3 D |
[V:4]D,,4- |
[V:1]z4 |
[V:2]GB E/F/G/E/ |
[V:3]EG C/D/E/C/ |
[V:4]D,,4- |
[V:1]zc'/d'/ d2- |
[V:2]FA zD |
[V:3]DF zF, |
[V:4]D,,4- |
[V:1]d4- |
[V:2]EG C/D/E/C/ |
[V:3]G,B, E,/F,/G,/E,/ |
[V:4]D,,4- |
[V:1]dc'/d'/ d2- |
[V:2]DF zA |
[V:3]F,A, zF |
[V:4]D,,2 z2 |
[V:1]d4- |
[V:2]Bd G/A/B/G/ |
[V:3]GB E/F/G/E/ |
[V:4]z4 |
[V:1]dc'/d'/ d2- |
[V:2]AF zF |
[V:3]FA zD |
[V:4]z4 |
[V:1]dc g2 |
[V:2]GE AA |
[V:3]EG C/D/E/C/ |
[V:4]z4 |
[V:1]f2 ^g3/f//g// |
[V:2]A2 d2 |
[V:3]DF B,/C/D/B,/ |
[V:4]z4 |
[V:1]ae c'2- |
[V:2]c2 e2 |
[V:3]C2 zA/^G/ |
[V:4]z3 A, |
[V:1]c'2 b2- |
[V:2]d4 |
[V:3]FB, E2- |
[V:4]B,D ^G,/A,/B,/G,/ |
[V:1]b2 a2- |
[V:2]c4 |
[V:3]EA, D2- |
[V:4]A,C zF, |
[V:1]a2 ^g2- |
[V:2]B4 |
[V:3]D^G, C2- |
[V:4]^G,B, E,/F,/G,/E,/ |
[V:1]g2 f2- |
[V:2]A4 |
[V:3]CF, B,2- |
[V:4]F,A, z^D, |
[V:1]f2 ed |
[V:2]^G2 B/c/d/B/ |
[V:3]B,2 E,2 |
[V:4]E,E,, ^G,/A,/B,/G,/ |
[V:1]ce ac |
[V:2]A2 A2- |
[V:3]E,2 c2 |
[V:4]A,2 z2 |
[V:1]df B/c/d/B/ |
[V:2]A2 ^G2- |
[V:3]B4 |
[V:4]z4 |
[V:1]ce zA |
[V:2]G2 F2- |
[V:3]A4 |
[V:4]z4 |
[V:1]Bd ^G/A/B/G/ |
[V:2]F2 E2- |
[V:3]^G4 |
[V:4]z4 |
[V:1]Ac zF |
[V:2]E2 ^D2 |
[V:3]F4 |
[V:4]z4 |
[V:1]^GB e2 |
[V:2]E2 e2 |
[V:3]E2 ^G/A/B/G/ |
[V:4]E,,E, E,E, |
[V:1]fa ^g/a/b/g/ |
[V:2]^d2 =d2 |
[V:3]Ac B/c/d/B/ |
[V:4]E,,E, E,E, |
[V:1]ac' b/c'/d'/b/ |
[V:2]c2 ^G/A/B/G/ |
[V:3]cE EE |
[V:4]E,,E, E,E, |
[V:1]c'e' ^d'/e'/f'/d'/ |
[V:2]Ac F/^G/A/F/ |
[V:3]E2 A,2 |
[V:4]E,,E, E,E, |
[V:1]e'4- |
[V:2]^GB e2 |
[V:3]^G,2 zc/B/ |
[V:4]E,,2 zE |
[V:1]e'2 d'2- |
[V:2]f4 |
[V:3]AD ^G2- |
[V:4]DF B,/C/D/B,/ |
[V:1]d'2 c'2- |
[V:2]e4 |
[V:3]GC F2- |
[V:4]CE zA, |
[V:1]c'2 b2- |
[V:2]d4 |
[V:3]FB, E2- |
[V:4]B,D ^G,/A,/B,/G,/ |
[V:1]b2 ac |
[V:2]c4 |
[V:3]EA, FF |
[V:4]A,/B,/C/A,/ F,/^G,/A,/F,/ |
[V:1]Ba E^g |
[V:2][BD]z [^GB,]z |
[V:3]Fz Dz |
[V:4]D,2 E,2 |
[V:1]A/c/e/c/ ^G/B/e/B/ |
[V:2][A2A,2] z2 |
[V:3]C2 z2 |
[V:4]A,,2 z2 |
[V:1]B/d/e/d/ A/c/e/c/ |
[V:2]Bz cz |
[V:3]Ez Ez |
[V:4]^G,2 A,2 |
[V:1]A/c/e/c/ ^G/B/e/B/ |
[V:2][A,2A2] z2 |
[V:3]C2 z2 |
[V:4]A,,2 z2 |
[V:1]B/d/e/d/ A/c/e/c/ |
[V:2]Bz cz |
[V:3]Ez Ez |
[V:4]^G,2 A,2 |
[V:1]D/B/f/e/ d/c/B/A/ |
[V:2]B2 zF |
[V:3]F2 z^D |
[V:4]D,2 z^D, |
[V:1]^G/^g/b/a/ g/f/e/d/ |
[V:2]B,2 zB |
[V:3]E2 zE |
[V:4]E,2 z^G, |
[V:1]c/d/e/d/ c/B/A/G/ |
[V:2]E2 zE |
[V:3]E2 zA, |
[V:4]A,2 zC, |
[V:1]Fa ^g=g |
[V:2]A,2 z2 |
[V:3]A,2 z2 |
[V:4]D,2 z2 |
[V:1]f=f e^d |
[V:2]z4 |
[V:3]z4 |
[V:4]z4 |
[V:1]e^e fa |
[V:2]z4 |
[V:3]z4 |
[V:4]z4 |
[V:1]E2 b2 |
[V:2]Ea2 ^g |
[V:3]C2 B,D |
[V:4]E,E, E,E, |
[V:1]a/e/e/e/ e/e/e/e/ |
[V:2]a2 z2 |
[V:3]C2 z2 |
[V:4]A,2 z2 |
[V:1]=f/e/e/e/ e/e/e/e/ |
[V:2]^G2 z2 |
[V:3]D2 z2 |
[V:4]B,2 z2 |
[V:1]^g/e/e/e/ e/e/e/e/ |
[V:2]e2 z2 |
[V:3]D2 z2 |
[V:4]B,2 z2 |
[V:1]a/A/b/A/ =c'/A/d'/A/ |
[V:2]a^g ab |
[V:3]AB =cd |
[V:4]A,2 z2 |
[V:1][e'3A3] ^d' |
[V:2]=c'3 b |
[V:3]e3 ^d |
[V:4]A,,A, A,A, |
[V:1][e'A]^d' e'd' |
[V:2]=c'b c'b |
[V:3]e^d ed |
[V:4]A,A, A,A, |
[V:1][e'A]d' =c'b |
[V:2]=c'=f ed |
[V:3]ed =cB |
[V:4]A,A, A,A, |
[V:1][a4A4] |
[V:2]=c4 |
[V:3]A4 |
[V:4]A,,A, A,A, |
[V:1][=c'4A4] |
[V:2]e4 |
[V:3]=c4 |
[V:4]A,,A, A,A, |
[V:1]^d/a/=c'/a/ c'/a/c'/a/ |
[V:2]=c4- |
[V:3]A4- |
[V:4]^D,D, D,D, |
[V:1]^d/a/=c'/a/ c'/a/c'/a/ |
[V:2]c4 |
[V:3]A4 |
[V:4]^D,D, D,D, |
[V:1]e4 |
[V:2]E/A/c/A/ c/A/c/A/ |
[V:3]EE EE |
[V:4]E,E, E,E, |
[V:1]b4 |
[V:2]E/B/d/B/ d/B/d/B/ |
[V:3]EE EE |
[V:4]E,E, E,E, |
[V:1]a2 ze |
[V:2]c2 zc |
[V:3]A,4- |
[V:4]A,,A,, A,,A,, |
[V:1]fd B/c/d/B/ |
[V:2]dB ^G/A/B/G/ |
[V:3]A,4- |
[V:4]A,,A,, A,,A,, |
[V:1]ec zc |
[V:2]cA zE |
[V:3]A,4- |
[V:4]A,,A,, A,,A,, |
[V:1]dB ^G/A/B/G/ |
[V:2]FD B,/C/D/B,/ |
[V:3]A,4- |
[V:4]A,,A,, A,,A,, |
[V:1]cA zc |
[V:2]EC zA |
[V:3]A,2 z2 |
[V:4]A,,2 z2 |
[V:1]df B/c/d/B/ |
[V:2]Bd ^G/A/B/G/ |
[V:3]z4 |
[V:4]z4 |
[V:1]ce z2 |
[V:2]Ac z2 |
[V:3]z3 A |
[V:4]z3 C |
[V:1]z4 |
[V:2]z4 |
[V:3]Bd ^G/A/B/G/ |
[V:4]DF B,/C/D/B,/ |
[V:1]z3 f |
[V:2]z3 d |
[V:3]Ac zd- |
[V:4]CE z2 |
[V:1]gb e/f/g/e/ |
[V:2]e4 |
[V:3]d2 c2- |
[V:4]z4 |
[V:1]fa zd |
[V:2]d4 |
[V:3]c2 B2- |
[V:4]z4 |
[V:1]eg c/d/e/c/ |
[V:2]c4 |
[V:3]B2 ^A2 |
[V:4]z4 |
[V:1]df b2- |
[V:2]B2 z2 |
[V:3]B2 d2 |
[V:4]z3 D, |
[V:1]b2 a2- |
[V:2]z3 F |
[V:3]c4 |
[V:4]E,G, F,/G,/A,/F,/ |
[V:1]a2 g2- |
[V:2]F/G/A/F/ G/A/B/G/ |
[V:3]B4 |
[V:4]^D,F, zE, |
[V:1]g2 f2- |
[V:2]EG FD |
[V:3]A4 |
[V:4]C,E, D,/E,/F,/D,/ |
[V:1]f2 e2- |
[V:2]D/E/F/D/ E/F/G/E/ |
[V:3]G4 |
[V:4]B,,D, zC, |
[V:1]e2 d2 |
[V:2]CE DB |
[V:3]F4 |
[V:4]^A,,C, B,,/C,/D,/B,,/ |
[V:1]cF f2 |
[V:2]^A3 A |
[V:3]F3 C |
[V:4]F,,F, F,F, |
[V:1]ge c/d/e/c/ |
[V:2]B2 c2 |
[V:3]D2 E2 |
[V:4]F,,F, F,F, |
[V:1]fd zd |
[V:2]^A2 B2 |
[V:3]C2 D2 |
[V:4]F,,F, F,F, |
[V:1]ec ^A/B/c/A/ |
[V:2]^G2 ^A2 |
[V:3]B,2 C2 |
[V:4]F,,F, F,F, |
[V:1]dB zB |
[V:2]B2 ^E2 |
[V:3]B,2 ^G,2 |
[V:4]F,,F, F,F, |
[V:1]^Ac FE |
[V:2]F2 F/^G/^A/F/ |
[V:3]F,2 z2 |
[V:4]F,2 z2 |
[V:1]DB, ^A,F |
[V:2]B/c/d/B/ c/d/e/c/ |
[V:3]z4 |
[V:4]z4 |
[V:1]B,D B/c/^d/B/ |
[V:2]df BA |
[V:3]z4 |
[V:4]z4 |
[V:1]e/f/g/e/ f/g/a/f/ |
[V:2]GE ^DB, |
[V:3]z4 |
[V:4]z4 |
[V:1]gb AG |
[V:2]EG A/B/c/A/ |
[V:3]z4 |
[V:4]z4 |
[V:1]FD CA, |
[V:2]d/e/f/d/ e/f/g/e/ |
[V:3]z4 |
[V:4]z4 |
[V:1]DF d/e/f/d/ |
[V:2]fa dd |
[V:3]z2 DA |
[V:4]z2 D=C |
[V:1]g/a/b/g/ a/b/=c'/a/ |
[V:2]d4- |
[V:3]BG FA |
[V:4]B,G, F,D, |
[V:1]b/a/g/f/ e/d/c/B/ |
[V:2]d3 B |
[V:3]G3 ^G |
[V:4]G,3 ^G, |
[V:1]A2 zF |
[V:2]E2 zD |
[V:3]A2 z2 |
[V:4]A,2 z2 |
[V:1]GB E/F/G/E/ |
[V:2]EG C/D/E/C/ |
[V:3]z4 |
[V:4]z4 |
[V:1]FA za |
[V:2]DF f2 |
[V:3]z3 F |
[V:4]z3 D |
[V:1]bg e/f/g/e/ |
[V:2]gb g/f/e/g/ |
[V:3]DB, E/D/C/E/ |
[V:4]B,D C/D/E/C/ |
[V:1]af zf |
[V:2]fa zd |
[V:3]CA, zD |
[V:4]A,C zB, |
[V:1]ge c/d/e/c/ |
[V:2]eg e/d/c/e/ |
[V:3]B,G, C/B,/A,/C/ |
[V:4]G,B, A,/B,/C/A,/ |
[V:1]fd d/e/f/d/ |
[V:2]df F/E/D/F/ |
[V:3]A,F, z2 |
[V:4]F,A, z2 |
[V:1]B/c/d/B/ e/f/g/e/ |
[V:2]G/A/B/A/ G/F/E/G/ |
[V:3]z4 |
[V:4]z4 |
[V:1]c2 z2 |
[V:2]Ac a2- |
[V:3]z4 |
[V:4]z3 F, |
[V:1]b4 |
[V:2]a2 g2- |
[V:3]dG c2- |
[V:4]G,B, E,/F,/G,/E,/ |
[V:1]a4 |
[V:2]g2 f2- |
[V:3]cF B2- |
[V:4]F,A, zD, |
[V:1]g4 |
[V:2]f2 e2- |
[V:3]BE A2- |
[V:4]E,G, C,/D,/E,/C,/ |
[V:1]f4 |
[V:2]e2 d2- |
[V:3]AD G2- |
[V:4]D,F, zB,, |
[V:1]e4 |
[V:2]d2 c2- |
[V:3]GC F2- |
[V:4]C,E, A,,/B,,/C,/A,,/ |
[V:1]d4 |
[V:2]c2 B2 |
[V:3]FB, E2- |
[V:4]B,,D, z^G,, |
[V:1]c2 za |
[V:2]Ae aF- |
[V:3]EC A,C |
[V:4]A,,4- |
[V:1]bd' g/a/b/g/ |
[V:2]F2 G2- |
[V:3]D2 E/F/G/E/ |
[V:4]A,,4- |
[V:1]ac' zf |
[V:2]G2 F2- |
[V:3]C2 D/E/F/D/ |
[V:4]A,,4- |
[V:1]gb e/f/g/e/ |
[V:2]F2 E2- |
[V:3]B,2 C/D/E/C/ |
[V:4]A,,4- |
[V:1]fa zd |
[V:2]E2 D2 |
[V:3]D2 F/G/A/F/ |
[V:4]A,,4- |
[V:1]eg B/c/d/B/ |
[V:2]G2 ^G2 |
[V:3]B4 |
[V:4]A,,4- |
[V:1]ce a2- |
[V:2]A4 |
[V:3]E2 zF |
[V:4]A,,2 z2 |
[V:1]a2 g2- |
[V:2]B4 |
[V:3]GB E/F/G/E/ |
[V:4]z4 |
[V:1]g2 f2- |
[V:2]A4 |
[V:3]FA zd/c/ |
[V:4]z3 D, |
[V:1]f2 e2- |
[V:2]G4 |
[V:3]BE A2- |
[V:4]E,G, C,/D,/E,/C,/ |
[V:1]e2 dF |
[V:2]F4 |
[V:3]AD Bz |
[V:4]D,/E,/F,/D,/ B,,/C,/D,/B,,/ |
[V:1]Ed A,c |
[V:2]Bz Gz |
[V:3]Gz Az |
[V:4]G,,2 A,,2 |
[V:1]D/F/A/F/ C/E/A/E/ |
[V:2]F2 z2 |
[V:3]D2 z2 |
[V:4]D,2 z2 |
[V:1]E/G/A/G/ D/F/A/F/ |
[V:2]Ez Fz |
[V:3]A,z A,z |
[V:4]C2 D2 |
[V:1]D/F/A/F/ C/E/A/E/ |
[V:2]F2 z2 |
[V:3]D2 z2 |
[V:4]D,2 z2 |
[V:1]E/G/A/G/ D/F/A/F/ |
[V:2]Ez Fz |
[V:3]A,z A,z |
[V:4]C2 D2 |
[V:1]G,/E/B/A/ G/F/E/D/ |
[V:2]E2 zB, |
[V:3]G,2 zE |
[V:4]G,2 z^G, |
[V:1]C/c/e/d/ c/B/A/G/ |
[V:2]A,2 zA, |
[V:3]E2 zE |
[V:4]A,2 zC, |
[V:1]F/f/a/g/ f/e/d/=c/ |
[V:2]A,2 zD |
[V:3]D2 zA |
[V:4]D,2 zF, |
[V:1]Bb ^a=a |
[V:2]D2 z2 |
[V:3]G2 z2 |
[V:4]G,2 z2 |
[V:1]^g=g fe |
[V:2]z4 |
[V:3]z4 |
[V:4]z4 |
[V:1]^de fg |
[V:2]z4 |
[V:3]z4 |
[V:4]z4 |
[V:1]A2 e2 |
[V:2]A,d2 c |
[V:3]F2 EG |
[V:4]A,A, A,A, |
[V:1]d/A/A/A/ A/A/A/A/ |
[V:2]d2 z2 |
[V:3]F2 z2 |
[V:4]D,2 z2 |
[V:1]_B/A/A/A/ A/A/A/A/ |
[V:2]C2 z2 |
[V:3]A,2 z2 |
[V:4]G,2 z2 |
[V:1]c/A/A/A/ A/A/A/A/ |
[V:2]A2 z2 |
[V:3]G2 z2 |
[V:4]E,2 z2 |
[V:1]d/D/e/D/ =f/D/g/D/ |
[V:2]dc de |
[V:3]DE =FG |
[V:4]D,2 z2 |
[V:1][a3D3] ^g |
[V:2]=f3 e |
[V:3]A3 ^G |
[V:4]D,,D, D,D, |
[V:1][aD]^g ag |
[V:2]=fe fe |
[V:3]A^G AG |
[V:4]D,D, D,D, |
[V:1][aD]g =fe |
[V:2]=fe dc |
[V:3]AG =FE |
[V:4]D,D, D,D, |
[V:1][d4D4] |
[V:2]d4- |
[V:3]=F4 |
[V:4]D,,D, D,D, |
[V:1][=f4D4] |
[V:2]d4 |
[V:3]A,4 |
[V:4]D,,D, D,D, |
[V:1]^G/=f/d'/f/ d'/f/d'/f/ |
[V:2]=F4- |
[V:3]D4- |
[V:4]^G,G, G,G, |
[V:1]^G/=f/d'/f/ d'/f/d'/f/ |
[V:2]F4 |
[V:3]D4 |
[V:4]^G,G, G,G, |
[V:1]A4 |
[V:2]A,/D/F/D/ F/D/F/D/ |
[V:3]A,A, A,A, |
[V:4]A,A, A,A, |
[V:1]e4 |
[V:2]A,/E/G/E/ G/E/G/E/ |
[V:3]A,A, A,A, |
[V:4]A,A, A,A, |
[V:1]d2 zF |
[V:2]F2 zD |
[V:3]D,4- |
[V:4]D,D,, D,,D,, |
[V:1]GB E/F/G/E/ |
[V:2]EG C/D/E/C/ |
[V:3]D,4- |
[V:4]D,,D,, D,,D,, |
[V:1]FA zD |
[V:2]DF z2 |
[V:3]D,3 F, |
[V:4]D,,D,, D,,D,, |
[V:1]EG C/D/E/C/ |
[V:2]z4 |
[V:3]G,B, E,/F,/G,/E,/ |
[V:4]D,,D,, D,,D,, |
[V:1]DF za |
[V:2]z3 f |
[V:3]F,A, z2 |
[V:4]D,,2 z2 |
[V:1]bg e/f/g/e/ |
[V:2]ge c/d/e/c/ |
[V:3]z4 |
[V:4]z4 |
[V:1]af zf |
[V:2]fd zA |
[V:3]z2 AF |
[V:4]z2 F,D, |
[V:1]ge c/d/e/c/ |
[V:2]BG E/F/G/E/ |
[V:3]z4 |
[V:4]z4 |
[V:1]fd z2 |
[V:2]AF z2 |
[V:3]z2 AF |
[V:4]z2 F,D, |
[V:1]AF z2 |
[V:2]FD z2 |
[V:3]z2 A,F, |
[V:4]z2 F,,D,, |
[V:1]af z2 |]
[V:2]fd z2 |]
[V:3]z4 |]
[V:4]z4 |]

